svgs/sharp-solid/people-dress.svg

<svg xmlns="http://www.w3.org/2000/svg" viewBox="0 0 640 512"><!--! Font Awesome Pro 6.6.0 by @fontawesome - https://fontawesome.com License - https://fontawesome.com/license (Commercial License) Copyright 2024 Fonticons, Inc. --><path d="M160 96a48 48 0 1 0 0-96 48 48 0 1 0 0 96zm-51.1 32l-17.5 0L82 142.8 .2 270.8l53.9 34.4 42-65.8L48 384l40 0 0 96 0 32 64 0 0-32 0-96 16 0 0 96 0 32 64 0 0-32 0-96 40 0L223.8 239.4l42 65.8 53.9-34.4L238 142.8 228.6 128l-17.5 0-102.2 0zM480 96a48 48 0 1 0 0-96 48 48 0 1 0 0 96zm-51.1 32l-17.5 0-9.4 14.8-81.7 128 53.9 34.4 42-65.8L368 384l40 0 0 96 0 32 64 0 0-32 0-96 16 0 0 96 0 32 64 0 0-32 0-96 40 0L543.8 239.4l42 65.8 53.9-34.4L558 142.8 548.6 128l-17.5 0-102.2 0z"/></svg>

<svg xmlns="http://www.w3.org/2000/svg" viewBox="0 0 640 512"><!--! Font Awesome Pro 6.4.0 by @fontawesome - https://fontawesome.com License - https://fontawesome.com/license (Commercial License) Copyright 2023 Fonticons, Inc. --><path d="M160 96a48 48 0 1 0 0-96 48 48 0 1 0 0 96zm-51.1 32H91.4L82 142.8 .2 270.8l53.9 34.4 42-65.8L48 384H88v96 32h64V480 384h16v96 32h64V480 384h40L223.8 239.4l42 65.8 53.9-34.4L238 142.8 228.6 128H211.1 108.9zM480 96a48 48 0 1 0 0-96 48 48 0 1 0 0 96zm-51.1 32H411.4L402 142.8l-81.7 128 53.9 34.4 42-65.8L368 384h40v96 32h64V480 384h16v96 32h64V480 384h40L543.8 239.4l42 65.8 53.9-34.4L558 142.8 548.6 128H531.1 428.9z"/></svg>
